X:1
T:M'y larrez vous
T:Roquelay
T:Source : Premier livre contenant 31 chansons eslevées---Paris---P.Attaignant---1535 Editor : Editor : André Vierendeels (13/12/17). Notes : Original clefs : C1, C3, C4, F3 Original note values have been halved Editorial accidentals above the staff m 16 in Alto : "F" notated as "H" in original print 
T:M'y larrez vous
T:©
T:©
T:©
C:Roquelay
Z:©
%%score [ 1 2 3 4 ]
L:1/8
Q:1/4=120
M:2/2
K:C
V:1 treble nm="Soprano" snm="S"
V:2 treble nm="Alto" snm="A"
V:3 treble-8 nm="Tenor" snm="T"
V:4 bass nm="Bass" snm="B"
V:1
 z8 | E4 A2 D2 | G3 G c2 d2 | B2 B4 A2 | D2 G2 A4 | G3 A B2 c2- | cB A4 G2 | A4 z2 A2 | %8
w: |M'y lar- rez|vous tous- iours lan-|guir, m'y lar-|rez vous tous-|iours _ _ lan-||guir, mon|
 c3 B A2 E2 | F3 G A4 | z2 A2 c2 c2 | G3 F/G/ A2 G2 | C4 z2 E2 | F2 E4 DC | E3 F G4 | z2 G2 A2 G2 | %16
w: bien ma- mour, mon|bien ma- mour,|mon bien ma-|mour, _ _ _ _|_ ma|sou- ve- * *|nan- * ce,|en dou- leur,|
 z2 B2 c2 B2 | A2 G2 A3 B | c2 d3 c c2- | c2 B2 c4- | c4 z2 c2 | c2 c2 cBAG | A3 c B2 A2 | %23
w: en dou- leur|et en des- plai-|san- * * *|* * ce,|_ par|faul- te de _ _ _|_ _ _ moy|
 A2 G2 A2 c2 | c2 B2 A3 A | A2 A2 G2 G2 | A2 B2 c4 | z4 E4 | A2 D2 G3 G | c2 d2 B2 B2- | %30
w: se- cou- rir m'y|lar- rez vous, tous-|iours lan- guir, tous-|iours lan- guir,|m'y|lar- rez vous, tous-|iours lan- guir, m'y|
 B2 A2 D2 G2 | A4 G3 A | B2 c3 B A2- |"^#" A2 G2 A4 |] %34
w: _ lar- rez vous,|tous- iours _|_ lan- * *|* * guir.|
V:2
 E4 A2 D2 | G3 G F2 F2 | E2 E4 A2 | D2 G4 FE | F2 E4 F2 | D2 G4 G2 | F2 D2 E4 | C2 E2 E2 A,2 | E8 | %9
w: M'y lar- rez|vous tous- iours lan-|guir, m'y lar-|rez vous, _ _|_ m'y lar-|rez vous tous-|iours lan- *|guir, mon bien ma-|mour,|
 z2 D2 F2 F2 | C3 D E4 | z2 E2 F2 E2 | C2 E2 F2 E2 | A,2 G,2 A,2 C2- | C2 B,A, B,2 E2 | %15
w: mon bien ma-|mour, _ _|mon bien ma-|mour, mon bien ma-|mour, ma sou- ve-|* nan- * ce, en|
 F2 E2 z2 E2 | E2 D2 C2 D2- | D2 E2 F4 | E2 A4 F2 | G4 E2 G2 | GFED E2 C2 | F4 E4 | z2 E4 D2 | %23
w: dou- leur, en|dou- leur et en|_ des plai-||san- ce, par|faul- * * * * *|* te|de moy|
 E2 E2 C2 E2 | E2 G2 E3 E | F2 F2 E4 | z4 E4 | A2 D2 G3 G | F2 F2 E2 E2- | E2 A2 D2 G2- | %30
w: se- cou- rir, m'y|lar- rez vous, tous-|iours lan- guir,|m'y|lar- rez vous, tous-|iours lan- guir, m'y|_ lar- rez vous,|
 G2 FE F2 E2- | E2 F2 D2 G2- | G2 G2 F2 D2 | E4 C4 |] %34
w: _ _ _ _ m'y|_ lar- rez vous,|_ tous- iours- lan-|* guir.|
V:3
 z8 | z8 | z8 | B4 e2 A2 | d2 B2 c2 d2 | B3 c d2 e2 | c2 A2 B4 | A8 | z2 A2 c3 B | A8- | A4 z2 G2 | %11
w: |||M'y lar- rez|vous, tous- * *|iours _ _ lan-||guir,|mon bien ma-|mour,|_ mon|
 c3 B A2 c2- | cB G2 A2 c2- | c2 B2 A4 | G4 z2 G2 | A2 G2 z2 B2 | c2 B2 z2 d2 | d2 G2 d2 c2 | %18
w: bien _ _ ma-|* * mour, ma sou-|* ve- nan-|ce, en|dou- leur, en|dou- leur, en|dou- leur et en|
 A2 f2 e2 c2 | d4 c2 e2 | edcB A3 B | c2 c4 c2 | c2 c2 G2 A2 | B4 A3 B | c2 d4 c2 | d2 d2 A4 | %26
w: des- plai- * *|san- ce, par|faul- * * * * *|* te de|moy se- cou- *|* rir, _|_ de moy|se- cou- rir,|
 z2 B2 e2 A2 | f3 e/d/ c2 c2 | d2 d2 B4 | z4 B4 | e2 A2 d2 B2 | c2 d2 B3 c | d2 e2 c2 A2 | B4 A4 |] %34
w: m'y lar- rez|vous, _ _ _ tous-|iours lan- guir,|m'y|lar- rez vous, m'y|lar- rez vous, _|_ tous- iours lan-|* guir.|
V:4
 z8 | z8 | E,4 A,2 D,2 | G,4 z4 | z2 E,2 A,2 D,2 | G,6 C,2 | F,4 E,4 | A,,2 A,2 C3 B, | %8
w: ||M'a lar- rez|vous,|m'y lar- rez|vou, tous-|iours lan-|guir, mon bien ma-|
 A,4 z2 A,2 | D,4 z2 D,2 | F,2 F,2 C,4- | C,4 z2 C,2 | F,2 E,2 D,2 C,2 | D,2 E,2 F,4 | E,8 | %15
w: mour, mon|bien, mon|bien ma- mour,|_ mon|bien ma- mour, ma|sou- ve- nan-|ce,|
 z2 E,2 F,2 E,2 | z2 G,2 A,2 G,2 | F,2 E,2 D,E,F,G, | A,2 D,2 A,4 | G,4 C,4 | z2 C2 CB,A,G, | %21
w: en dou- leur,|en dou- leur|et en tri- * * *||tes- se,|par faul- * * *|
 F,3 G, A,2 A,,2- | A,,B,,C,D, E,2 F,2 | E,2 E,2 A,,2 A,2 | A,2 G,2 A,3 A, | D,2 D,2 E,2 E,2 | %26
w: te _ _ de|_ _ _ _ moy _|se- cou- rir, m'y|lar- rez vous, tous-|iours lan- guir, m'y|
 A,2 G,2 A,4 | D,4 z4 | z4 E,4 | A,2 D,2 G,4 | z4 z2 E,2 | A,2 D,2 G,4- | G,2 C,2 F,4 | E,4 A,,4 |] %34
w: lar- * rez|vous,|m'y|lar- rez vous,|m'y|lar- rez vous,|_ tous- iours|lan- guir.|

